images/behance-toggle.svg

<svg xmlns="http://www.w3.org/2000/svg" id="Behance" viewBox="0 0 90 90" width="90" height="90"><style>.st0{fill:#f7edee}</style><path id="behance-behance" d="M25.7 64.1H11.3v15.2h14.1c4.8 0 8.7-1.5 8.7-7.3.1-5.6-3.2-7.9-8.4-7.9zm-1.9-22H11.3V55h13.5c4.2 0 7.5-1.9 7.5-6.6-.1-5.3-4.1-6.3-8.5-6.3zm23 30.1c0 11.2-9.6 16-19.6 16H.2V32.7h26.2c10.6 0 17.8 3.8 17.8 14 0 5.4-2.7 9.2-7.5 11.5 6.7 2 10.1 7.2 10.1 14zm13.1-35.8h22.3v7.4H59.9v-7.4zm10 19.1c-7.1 0-9.1 3.9-9.2 6.9h18c-.9-5.5-3.4-6.9-8.8-6.9zm-9.2 14.2c.4 6.9 3.8 11.4 9.9 11.4 4.5 0 8.6-3.6 9.3-6.1h9.8c-3.1 9.4-10.2 14.3-19.4 14.3-12.7 0-20.7-8.7-20.7-21 0-12 8.5-21 20.7-21 13.8 0 20.3 10.1 19.6 22.5 0-.1-29.2-.1-29.2-.1z" class="st0"/></svg>

<?xml version="1.0" encoding="utf-8"?>
<!-- Generator: Adobe Illustrator 22.0.1, SVG Export Plug-In . SVG Version: 6.00 Build 0)  -->
<svg version="1.1" id="Behance" xmlns="http://www.w3.org/2000/svg" xmlns:xlink="http://www.w3.org/1999/xlink" x="0px" y="0px"
	 viewBox="0 0 90 90" style="enable-background:new 0 0 90 90;" xml:space="preserve">
<style type="text/css">
	.st0{fill:#F7EDEE;}
</style>
<g>
	<path id="behance-behance" class="st0" d="M25.7,64.1H11.3v15.2h14.1c4.8,0,8.7-1.5,8.7-7.3C34.2,66.4,30.9,64.1,25.7,64.1z
		 M23.8,42.1H11.3V55h13.5c4.2,0,7.5-1.9,7.5-6.6C32.2,43.1,28.2,42.1,23.8,42.1z M46.8,72.2c0,11.2-9.6,16-19.6,16h-27V32.7h26.2
		c10.6,0,17.8,3.8,17.8,14c0,5.4-2.7,9.2-7.5,11.5C43.4,60.2,46.8,65.4,46.8,72.2z M59.9,36.4h22.3v7.4H59.9
		C59.9,43.8,59.9,36.4,59.9,36.4z M69.9,55.5c-7.1,0-9.1,3.9-9.2,6.9h18C77.8,56.9,75.3,55.5,69.9,55.5z M60.7,69.7
		c0.4,6.9,3.8,11.4,9.9,11.4c4.5,0,8.6-3.6,9.3-6.1h9.8c-3.1,9.4-10.2,14.3-19.4,14.3c-12.7,0-20.7-8.7-20.7-21c0-12,8.5-21,20.7-21
		c13.8,0,20.3,10.1,19.6,22.5C89.9,69.7,60.7,69.7,60.7,69.7z"/>
</g>
</svg>
